findly-builder/apps/searchassist/src/assets/icons/editor/image-horizantal-active.svg

<svg width="30" height="28" viewBox="0 0 30 28" fill="none" xmlns="http://www.w3.org/2000/svg">
<path d="M0 23C0 22.4477 0.447715 22 1 22H29C29.5523 22 30 22.4477 30 23C30 23.5523 29.5523 24 29 24H1C0.447716 24 0 23.5523 0 23ZM0 27C0 26.4477 0.447715 26 1 26H20C20.5523 26 21 26.4477 21 27C21 27.5523 20.5523 28 20 28H1C0.447715 28 0 27.5523 0 27ZM0 2C0 0.89543 0.895431 0 2 0H28C29.1046 0 30 0.895431 30 2V11.5C30 12.6046 29.1046 13.5 28 13.5H2C0.89543 13.5 0 12.6046 0 11.5V2Z" fill="#0D6EFD"/>
<path d="M30 19C30 18.4477 29.5523 18 29 18H1C0.447715 18 0 18.4477 0 19C0 19.5523 0.447716 20 1 20H29C29.5523 20 30 19.5523 30 19Z" fill="#0D6EFD"/>
</svg>

<svg width="30" height="28" fill="none" xmlns="http://www.w3.org/2000/svg"><path d="M0 23a1 1 0 0 1 1-1h28a1 1 0 1 1 0 2H1a1 1 0 0 1-1-1Zm0 4a1 1 0 0 1 1-1h19a1 1 0 1 1 0 2H1a1 1 0 0 1-1-1ZM0 2a2 2 0 0 1 2-2h26a2 2 0 0 1 2 2v9.5a2 2 0 0 1-2 2H2a2 2 0 0 1-2-2V2Zm30 17a1 1 0 0 0-1-1H1a1 1 0 1 0 0 2h28a1 1 0 0 0 1-1Z" fill="#0D6EFD"/></svg>
